resources/svg/nintendo-switch.svg

<svg width="15" height="15" viewBox="0 0 15 15" fill="none" xmlns="http://www.w3.org/2000/svg">
<path d="M3.5 4C3.22386 4 3 4.22386 3 4.5C3 4.77614 3.22386 5 3.5 5C3.77614 5 4 4.77614 4 4.5C4 4.22386 3.77614 4 3.5 4Z" fill="black"/>
<path fill-rule="evenodd" clip-rule="evenodd" d="M7 0.500002L7 12.5C7 12.6326 6.94732 12.7598 6.85355 12.8536C6.75978 12.9473 6.63261 13 6.5 13H3.5C1.567 13 0 11.433 0 9.5V3.5C0 1.567 1.56701 0 3.5 0L6.5 2.0047e-06C6.77614 2.19559e-06 7 0.22386 7 0.500002ZM2 4.5C2 3.67157 2.67157 3 3.5 3C4.32843 3 5 3.67157 5 4.5C5 5.32843 4.32843 6 3.5 6C2.67157 6 2 5.32843 2 4.5Z" fill="black"/>
<path d="M11.5 10C11.2239 10 11 10.2239 11 10.5C11 10.7761 11.2239 11 11.5 11C11.7761 11 12 10.7761 12 10.5C12 10.2239 11.7761 10 11.5 10Z" fill="black"/>
<path fill-rule="evenodd" clip-rule="evenodd" d="M15 5.5V11.5C15 13.433 13.433 15 11.5 15H8.5C8.22386 15 8 14.7761 8 14.5V2.5C8 2.36739 8.05268 2.24021 8.14645 2.14645C8.24022 2.05268 8.36739 2 8.5 2L11.5 2C13.433 2 15 3.56701 15 5.5ZM10 10.5C10 9.67157 10.6716 9 11.5 9C12.3284 9 13 9.67157 13 10.5C13 11.3284 12.3284 12 11.5 12C10.6716 12 10 11.3284 10 10.5Z" fill="black"/>
</svg>

<svg viewBox="0 0 15 15" fill="none" xmlns="http://www.w3.org/2000/svg" fill="currentColor"><path d="M3.5 4a.5.5 0 100 1 .5.5 0 000-1z" fill="currentColor"/><path fill-rule="evenodd" clip-rule="evenodd" d="M7 .5v12a.5.5 0 01-.5.5h-3A3.5 3.5 0 010 9.5v-6A3.5 3.5 0 013.5 0h3a.5.5 0 01.5.5zm-5 4a1.5 1.5 0 113 0 1.5 1.5 0 01-3 0z" fill="currentColor"/><path d="M11.5 10a.5.5 0 100 1 .5.5 0 000-1z" fill="currentColor"/><path fill-rule="evenodd" clip-rule="evenodd" d="M15 5.5v6a3.5 3.5 0 01-3.5 3.5h-3a.5.5 0 01-.5-.5v-12a.5.5 0 01.5-.5h3A3.5 3.5 0 0115 5.5zm-5 5a1.5 1.5 0 113 0 1.5 1.5 0 01-3 0z" fill="currentColor"/></svg>
